Komodo/actions/scalable/mail-message-new.svg

<?xml version="1.0" encoding="UTF-8" standalone="no"?>
<!-- Created with Inkscape (http://www.inkscape.org/) -->
<svg id="svg2408" xmlns:rdf="http://www.w3.org/1999/02/22-rdf-syntax-ns#" xmlns="http://www.w3.org/2000/svg" height="96" width="96" version="1.0" xmlns:cc="http://creativecommons.org/ns#" xmlns:xlink="http://www.w3.org/1999/xlink" xmlns:dc="http://purl.org/dc/elements/1.1/">
 <defs id="defs2410">
  <linearGradient id="linearGradient3641">
   <stop id="stop3643" offset="0"/>
   <stop id="stop3645" style="stop-opacity:0" offset="1"/>
  </linearGradient>
  <linearGradient id="ButtonShadow" x1="45.448" gradientUnits="userSpaceOnUse" y1="92.54" gradientTransform="scale(1.0059 .99417)" x2="45.448" y2="7.0165">
   <stop id="stop3750" offset="0"/>
   <stop id="stop3752" style="stop-opacity:.58824" offset="1"/>
  </linearGradient>
  <linearGradient id="linearGradient3737">
   <stop id="stop3739" style="stop-color:#fff" offset="0"/>
   <stop id="stop3741" style="stop-color:#fff;stop-opacity:0" offset="1"/>
  </linearGradient>
  <linearGradient id="linearGradient3700">
   <stop id="stop3702" style="stop-color:#dcdcdc" offset="0"/>
   <stop id="stop3704" style="stop-color:#f0f0f0" offset="1"/>
  </linearGradient>
  <filter id="filter3174" color-interpolation-filters="sRGB">
   <feGaussianBlur id="feGaussianBlur3176" stdDeviation="1.71"/>
  </filter>
  <filter id="filter3794" width="1.384" y="-.192" x="-.192" height="1.384" color-interpolation-filters="sRGB">
   <feGaussianBlur id="feGaussianBlur3796" stdDeviation="5.28"/>
  </filter>
  <linearGradient id="linearGradient3613" x1="48" xlink:href="#linearGradient3737" gradientUnits="userSpaceOnUse" x2="48" y1="20.221" y2="138.66"/>
  <clipPath id="clipPath3613">
   <rect id="rect3615" style="fill:#fff" rx="6" ry="6" height="84" width="84" y="6" x="6"/>
  </clipPath>
  <linearGradient id="linearGradient3627" x1="48" xlink:href="#linearGradient3700" gradientUnits="userSpaceOnUse" x2="48" y1="88" y2="32"/>
  <linearGradient id="linearGradient3635" y2="36" gradientUnits="userSpaceOnUse" y1="88" x2="48" x1="48">
   <stop id="stop3729" style="stop-color:#d5d5d5" offset="0"/>
   <stop id="stop3731" style="stop-color:#f1f1f1" offset="1"/>
  </linearGradient>
  <filter id="filter3649" color-interpolation-filters="sRGB">
   <feGaussianBlur id="feGaussianBlur3651" stdDeviation="1.38"/>
  </filter>
  <filter id="filter3665" color-interpolation-filters="sRGB">
   <feGaussianBlur id="feGaussianBlur3667" stdDeviation="0.69"/>
  </filter>
  <linearGradient id="linearGradient3687" x1="36.357" xlink:href="#linearGradient3737" gradientUnits="userSpaceOnUse" x2="36.357" y1="6" y2="63.893"/>
  <linearGradient id="linearGradient3689" x1="48" xlink:href="#linearGradient3700" gradientUnits="userSpaceOnUse" x2="48" y1="90" y2="5.9877"/>
  <clipPath id="clipPath3696">
   <rect id="rect3698" style="fill:#f0f" rx="6" ry="6" height="84" width="84" y="6" x="106"/>
  </clipPath>
  <linearGradient id="linearGradient3701" x1="48" xlink:href="#linearGradient3641" gradientUnits="userSpaceOnUse" y1="32" gradientTransform="translate(100)" x2="48" y2="80"/>
  <clipPath id="clipPath3703">
   <rect id="rect3705" style="fill:#f0f" rx="6" ry="6" height="84" width="84" y="6" x="106"/>
  </clipPath>
  <linearGradient id="linearGradient3707" x1="51" xlink:href="#linearGradient3641" gradientUnits="userSpaceOnUse" y1="62" gradientTransform="translate(100,-1)" x2="51" y2="21"/>
  <radialGradient id="radialGradient2858" gradientUnits="userSpaceOnUse" cy="90.172" cx="48" gradientTransform="matrix(1.1573 0 0 .99591 -7.551 .19713)" r="42">
   <stop id="stop3739-5" style="stop-color:#fff" offset="0"/>
   <stop id="stop3741-7" style="stop-color:#fff;stop-opacity:0" offset="1"/>
  </radialGradient>
  <linearGradient id="ButtonShadow-0" x1="45.448" gradientUnits="userSpaceOnUse" y1="92.54" gradientTransform="matrix(1.0059 0 0 .99417 100 0)" x2="45.448" y2="7.0165">
   <stop id="stop3750-8" offset="0"/>
   <stop id="stop3752-5" style="stop-opacity:.58824" offset="1"/>
  </linearGradient>
  <linearGradient id="linearGradient3780" x1="32.251" xlink:href="#ButtonShadow-0" gradientUnits="userSpaceOnUse" y1="6.1317" gradientTransform="matrix(1.0238 0 0 1.0119 -1.1429 -98.071)" x2="32.251" y2="90.239"/>
  <linearGradient id="linearGradient3721" x1="32.251" xlink:href="#ButtonShadow-0" gradientUnits="userSpaceOnUse" y1="6.1317" gradientTransform="translate(0,-97)" x2="32.251" y2="90.239"/>
 </defs>
 <metadata id="metadata2413">
  <rdf:RDF>
   <cc:Work rdf:about="">
    <dc:format>image/svg+xml</dc:format>
    <dc:type rdf:resource="http://purl.org/dc/dcmitype/StillImage"/>
   </cc:Work>
  </rdf:RDF>
 </metadata>
 <g id="layer2" style="display:none">
  <rect id="rect3745" style="opacity:.9;filter:url(#filter3174);fill:url(#ButtonShadow)" rx="6" ry="6" height="85" width="86" y="7" x="5"/>
 </g>
 <g id="layer3">
  <path id="path3786" style="opacity:.08;fill:url(#linearGradient3780)" transform="scale(1,-1)" d="m12-95.031c-5.5111 0-10.031 4.5202-10.031 10.031v71c0 5.5111 4.5202 10.031 10.031 10.031h72c5.5111 0 10.031-4.5202 10.031-10.031v-71c0-5.5111-4.5202-10.031-10.031-10.031h-72z"/>
  <path id="path3778" style="opacity:.1;fill:url(#linearGradient3780)" transform="scale(1,-1)" d="m12-94.031c-4.9716 0-9.0312 4.0596-9.0312 9.0312v71c0 4.9716 4.0596 9.0312 9.0312 9.0312h72c4.9716 0 9.0312-4.0596 9.0312-9.0312v-71c0-4.9716-4.0596-9.0312-9.0312-9.0312h-72z"/>
  <path id="path3770" style="opacity:.2;fill:url(#linearGradient3780)" transform="scale(1,-1)" d="m12-93c-4.4091 0-8 3.5909-8 8v71c0 4.4091 3.5909 8 8 8h72c4.4091 0 8-3.5909 8-8v-71c0-4.4091-3.5909-8-8-8h-72z"/>
  <rect id="rect3723" style="opacity:.3;fill:url(#linearGradient3780)" transform="scale(1,-1)" rx="7" ry="7" height="85" width="86" y="-92" x="5"/>
  <rect id="rect3716" style="opacity:.45;fill:url(#linearGradient3721)" transform="scale(1,-1)" rx="6" ry="6" height="84" width="84" y="-91" x="6"/>
 </g>
 <g id="layer1">
  <rect id="rect2419" style="fill:url(#linearGradient3689)" rx="6" ry="6" height="84" width="84" y="6" x="6"/>
  <path id="path3653" clip-path="url(#clipPath3696)" style="opacity:.3;filter:url(#filter3665);fill:url(#linearGradient3701)" transform="translate(-100,-1)" d="m112 89c-3.324 0-6-2.676-6-6v-6l42-42 42 42v6c0 3.324-2.676 6-6 6h-72z"/>
  <path id="path3619" style="fill:url(#linearGradient3635)" d="m12 90c-3.324 0-6-2.676-6-6v-6l42-42 42 42v6c0 3.324-2.676 6-6 6h-72z"/>
  <path id="path3718" style="opacity:.4;fill:#fff" d="m48 36-42 42v1l42-42 42 42v-1l-42-42z"/>
  <path id="path3637" clip-path="url(#clipPath3703)" style="opacity:.4;filter:url(#filter3649);fill:url(#linearGradient3707)" transform="translate(-100,1)" d="m112 7c-3.324 0-6 2.676-6 6v6l42 42 42-42v-6c0-3.324-2.676-6-6-6h-72z"/>
  <path id="path3613" style="fill:url(#linearGradient3627)" d="m12 6c-3.324 0-6 2.676-6 6v6l42 42 42-42v-6c0-3.324-2.676-6-6-6h-72z"/>
  <path id="path3709" style="opacity:.6;fill:#fff" d="m6 17v1l42 42 42-42v-1l-42 42-42-42z"/>
 </g>
 <g id="layer5">
  <rect id="rect3171" style="opacity:.1;filter:url(#filter3794);stroke:#fff;stroke-linecap:round;stroke-width:.5;fill:url(#linearGradient3613)" clip-path="url(#clipPath3613)" rx="12" ry="12" height="66" width="66" y="15" x="15"/>
  <path id="path3615" style="opacity:0" d="m12 90c-3.324 0-6-2.676-6-6v-72c0-0.33472 0.04135-0.6507 0.09375-0.96875 0.0487-0.2956 0.09704-0.59692 0.1875-0.875 0.0099-0.03 0.0209-0.063 0.0313-0.094 0.0989-0.2873 0.2349-0.547 0.375-0.812 0.1446-0.2735 0.3156-0.5356 0.5-0.7812 0.1844-0.2457 0.3738-0.4735 0.5937-0.6876 0.44-0.428 0.943-0.8145 1.5-1.0937 0.2786-0.1396 0.5735-0.2469 0.8748-0.3437-0.256 0.1002-0.4865 0.2362-0.7185 0.375-0.00741 0.0044-0.023866-0.0045-0.03125 0-0.031933 0.0193-0.062293 0.04251-0.09375 0.0625-0.1204 0.0767-0.23102 0.16351-0.34375 0.25-0.10617 0.0808-0.21328 0.16111-0.3125 0.25-0.1779 0.1614-0.3474 0.3453-0.5 0.5312-0.1075 0.1303-0.2183 0.2653-0.3124 0.4063-0.0251 0.0383-0.0385 0.0858-0.0626 0.125-0.0647 0.103-0.1302 0.2045-0.1874 0.3124-0.1011 0.1948-0.2057 0.4158-0.2813 0.625-0.008 0.0219-0.0236 0.0406-0.0313 0.0626-0.0318 0.0919-0.0358 0.1868-0.0624 0.2812-0.0304 0.1066-0.0704 0.203-0.0938 0.3125-0.0729 0.3415-0.125 0.6985-0.125 1.0625v72c0 2.7818 2.2182 5 5 5h72c2.7818 0 5-2.2182 5-5v-72c0-0.364-0.052-0.721-0.125-1.0625-0.044-0.2069-0.088-0.3977-0.156-0.5937-0.008-0.022-0.024-0.0407-0.031-0.0626-0.063-0.1737-0.139-0.3674-0.219-0.5312-0.042-0.0828-0.079-0.17-0.125-0.25-0.055-0.0972-0.127-0.1884-0.188-0.2812-0.094-0.141-0.205-0.276-0.312-0.4063-0.143-0.1745-0.303-0.347-0.469-0.5-0.011-0.0102-0.02-0.0211-0.031-0.0313-0.139-0.1255-0.285-0.2344-0.438-0.3437-0.102-0.0731-0.204-0.1534-0.312-0.2187-0.0074-0.0045-0.02384 0.0044-0.03125 0-0.23204-0.13873-0.46255-0.27478-0.71875-0.375 0.30153 0.0968 0.59646 0.20414 0.875 0.34375 0.55709 0.27922 1.0601 0.66569 1.5 1.0938 0.21997 0.21403 0.40937 0.44186 0.59375 0.6875s0.35541 0.50774 0.5 0.78125c0.14012 0.26505 0.27614 0.52473 0.375 0.8125 0.01041 0.03078 0.02133 0.06274 0.03125 0.09375 0.09046 0.27808 0.1388 0.5794 0.1875 0.875 0.053 0.318 0.094 0.634 0.094 0.969v72c0 3.324-2.676 6-6 6h-72z"/>
  <path id="rect3728" style="opacity:.6;fill:url(#linearGradient3687)" d="m12 6c-3.324 0-6 2.676-6 6v72c0 0.33472 0.04135 0.6507 0.09375 0.96875 0.0487 0.2956 0.09704 0.59692 0.1875 0.875 0.0099 0.03038 0.02089 0.0636 0.03125 0.09375 0.09886 0.28777 0.23488 0.54745 0.375 0.8125 0.14459 0.27351 0.31562 0.53562 0.5 0.78125 0.18438 0.24564 0.37378 0.47347 0.59375 0.6875 0.43995 0.42806 0.94291 0.81453 1.5 1.0938 0.27854 0.13961 0.57347 0.24695 0.875 0.34375-0.2562-0.10022-0.48671-0.23627-0.71875-0.375-0.0074-0.0044-0.02387 0.0045-0.03125 0-0.03193-0.0193-0.06229-0.04251-0.09375-0.0625-0.1204-0.0767-0.23102-0.16351-0.34375-0.25-0.10617-0.0808-0.21328-0.16111-0.3125-0.25-0.1778-0.162-0.3473-0.346-0.4999-0.531-0.1075-0.131-0.2183-0.266-0.3124-0.407-0.0251-0.038-0.0385-0.086-0.0626-0.125-0.0647-0.103-0.1302-0.204-0.1874-0.312-0.1011-0.195-0.2057-0.416-0.2813-0.625-0.008-0.022-0.0236-0.041-0.0313-0.063-0.0318-0.092-0.0358-0.187-0.0624-0.281-0.0304-0.107-0.0704-0.203-0.0938-0.313-0.0729-0.341-0.125-0.698-0.125-1.062v-72c0-2.782 2.2182-5 5-5h72c2.7818 0 5 2.2182 5 5v72c0 0.3643-0.05212 0.72099-0.125 1.0625-0.04415 0.20689-0.08838 0.39766-0.15625 0.59375-0.0077 0.02195-0.0233 0.04069-0.03125 0.0625-0.06274 0.17374-0.13838 0.36745-0.21875 0.53125-0.04158 0.0828-0.07904 0.16995-0.125 0.25-0.0546 0.09721-0.12677 0.18835-0.1875 0.28125-0.09411 0.14096-0.20492 0.276-0.3125 0.40625-0.14317 0.17445-0.30314 0.347-0.46875 0.5-0.01117 0.0102-0.01998 0.02115-0.03125 0.03125-0.13839 0.12556-0.28509 0.23444-0.4375 0.34375-0.10257 0.07315-0.20432 0.15336-0.3125 0.21875-0.0074 0.0045-0.02384-0.0044-0.03125 0-0.23204 0.13873-0.46255 0.27478-0.71875 0.375 0.30153-0.0968 0.59646-0.20414 0.875-0.34375 0.55709-0.27922 1.0601-0.66569 1.5-1.0938 0.21997-0.21403 0.40937-0.44186 0.59375-0.6875s0.35541-0.50774 0.5-0.78125c0.14012-0.26505 0.27614-0.52473 0.375-0.8125 0.01041-0.03078 0.02133-0.06274 0.03125-0.09375 0.09046-0.27808 0.1388-0.5794 0.1875-0.875 0.053-0.318 0.094-0.634 0.094-0.969v-72c0-3.324-2.676-6-6-6h-72z"/>
  <path id="path3615-5" style="opacity:.3;fill:url(#radialGradient2858)" d="m12 90c-3.324 0-6-2.676-6-6v-72c0-0.33472 0.04135-0.6507 0.09375-0.96875 0.0487-0.2956 0.09704-0.59692 0.1875-0.875 0.0099-0.03 0.0209-0.063 0.0313-0.094 0.0989-0.2873 0.2349-0.547 0.375-0.812 0.1446-0.2735 0.3156-0.5356 0.5-0.7812 0.1844-0.2457 0.3738-0.4735 0.5937-0.6876 0.44-0.428 0.943-0.8145 1.5-1.0937 0.2786-0.1396 0.5735-0.2469 0.8748-0.3437-0.256 0.1002-0.4865 0.2362-0.7185 0.375-0.00741 0.0044-0.023866-0.0045-0.03125 0-0.031933 0.0193-0.062293 0.04251-0.09375 0.0625-0.1204 0.0767-0.23102 0.16351-0.34375 0.25-0.10617 0.0808-0.21328 0.16111-0.3125 0.25-0.1779 0.1614-0.3474 0.3453-0.5 0.5312-0.1075 0.1303-0.2183 0.2653-0.3124 0.4063-0.0251 0.0383-0.0385 0.0858-0.0626 0.125-0.0647 0.103-0.1302 0.2045-0.1874 0.3124-0.1011 0.1948-0.2057 0.4158-0.2813 0.625-0.008 0.0219-0.0236 0.0406-0.0313 0.0626-0.0318 0.0919-0.0358 0.1868-0.0624 0.2812-0.0304 0.1066-0.0704 0.203-0.0938 0.3125-0.0729 0.3415-0.125 0.6985-0.125 1.0625v72c0 2.7818 2.2182 5 5 5h72c2.7818 0 5-2.2182 5-5v-72c0-0.364-0.052-0.721-0.125-1.0625-0.044-0.2069-0.088-0.3977-0.156-0.5937-0.008-0.022-0.024-0.0407-0.031-0.0626-0.063-0.1737-0.139-0.3674-0.219-0.5312-0.042-0.0828-0.079-0.17-0.125-0.25-0.055-0.0972-0.127-0.1884-0.188-0.2812-0.094-0.141-0.205-0.276-0.312-0.4063-0.143-0.1745-0.303-0.347-0.469-0.5-0.011-0.0102-0.02-0.0211-0.031-0.0313-0.139-0.1255-0.285-0.2344-0.438-0.3437-0.102-0.0731-0.204-0.1534-0.312-0.2187-0.0074-0.0045-0.02384 0.0044-0.03125 0-0.23204-0.13873-0.46255-0.27478-0.71875-0.375 0.30153 0.0968 0.59646 0.20414 0.875 0.34375 0.55709 0.27922 1.0601 0.66569 1.5 1.0938 0.21997 0.21403 0.40937 0.44186 0.59375 0.6875s0.35541 0.50774 0.5 0.78125c0.14012 0.26505 0.27614 0.52473 0.375 0.8125 0.01041 0.03078 0.02133 0.06274 0.03125 0.09375 0.09046 0.27808 0.1388 0.5794 0.1875 0.875 0.053 0.318 0.094 0.634 0.094 0.969v72c0 3.324-2.676 6-6 6h-72z"/>
 </g>
</svg>

<?xml version="1.0" encoding="UTF-8" standalone="no"?>
<!-- Created with Inkscape (http://www.inkscape.org/) -->

<svg
   xmlns:dc="http://purl.org/dc/elements/1.1/"
   xmlns:cc="http://creativecommons.org/ns#"
   xmlns:rdf="http://www.w3.org/1999/02/22-rdf-syntax-ns#"
   xmlns:svg="http://www.w3.org/2000/svg"
   xmlns="http://www.w3.org/2000/svg"
   xmlns:xlink="http://www.w3.org/1999/xlink"
   xmlns:sodipodi="http://sodipodi.sourceforge.net/DTD/sodipodi-0.dtd"
   xmlns:inkscape="http://www.inkscape.org/namespaces/inkscape"
   width="96"
   height="96"
   id="svg11037"
   version="1.1"
   inkscape:version="0.48.3.1 r9886"
   sodipodi:docname="message.svg">
  <defs
     id="defs11039">
    <linearGradient
       y2="1046.1001"
       x2="47.999954"
       y1="962.62189"
       x1="47.999954"
       gradientTransform="matrix(1.15,0,0,1.15,-7.1999462,-150.65291)"
       gradientUnits="userSpaceOnUse"
       id="linearGradient3886"
       xlink:href="#linearGradient3795"
       inkscape:collect="always" />
    <linearGradient
       id="linearGradient3795">
      <stop
         style="stop-color:#13a6fd;stop-opacity:1;"
         offset="0"
         id="stop3797" />
      <stop
         style="stop-color:#2975b6;stop-opacity:1;"
         offset="1"
         id="stop3799" />
    </linearGradient>
    <linearGradient
       y2="1046.1001"
       x2="47.999954"
       y1="962.62189"
       x1="47.999954"
       gradientTransform="matrix(1.15,0,0,1.15,-7.1999462,-150.65292)"
       gradientUnits="userSpaceOnUse"
       id="linearGradient11642"
       xlink:href="#linearGradient3795"
       inkscape:collect="always" />
    <linearGradient
       x1="48"
       y1="90"
       x2="48"
       y2="5.9877172"
       id="linearGradient3689"
       xlink:href="#linearGradient3700"
       gradientUnits="userSpaceOnUse" />
    <linearGradient
       id="linearGradient3700">
      <stop
         id="stop3702"
         style="stop-color:#dcdcdc;stop-opacity:1"
         offset="0" />
      <stop
         id="stop3704"
         style="stop-color:#f0f0f0;stop-opacity:1"
         offset="1" />
    </linearGradient>
    <linearGradient
       x1="48"
       y1="32"
       x2="48"
       y2="80"
       id="linearGradient3701"
       xlink:href="#linearGradient3641"
       gradientUnits="userSpaceOnUse"
       gradientTransform="translate(100,0)" />
    <linearGradient
       id="linearGradient3641">
      <stop
         id="stop3643"
         style="stop-color:#000000;stop-opacity:1"
         offset="0" />
      <stop
         id="stop3645"
         style="stop-color:#000000;stop-opacity:0"
         offset="1" />
    </linearGradient>
    <clipPath
       id="clipPath3696">
      <rect
         width="84"
         height="84"
         rx="6"
         ry="6"
         x="106"
         y="6"
         id="rect3698"
         style="fill:#ff00ff;fill-opacity:1;fill-rule:nonzero;stroke:none" />
    </clipPath>
    <filter
       color-interpolation-filters="sRGB"
       id="filter3665">
      <feGaussianBlur
         id="feGaussianBlur3667"
         stdDeviation="0.69" />
    </filter>
    <linearGradient
       x1="48"
       y1="88"
       x2="48"
       y2="36"
       id="linearGradient3635"
       xlink:href="#linearGradient3727"
       gradientUnits="userSpaceOnUse" />
    <linearGradient
       id="linearGradient3727">
      <stop
         id="stop3729"
         style="stop-color:#d5d5d5;stop-opacity:1"
         offset="0" />
      <stop
         id="stop3731"
         style="stop-color:#f1f1f1;stop-opacity:1"
         offset="1" />
    </linearGradient>
    <linearGradient
       x1="51"
       y1="62"
       x2="51"
       y2="21"
       id="linearGradient3707"
       xlink:href="#linearGradient3641"
       gradientUnits="userSpaceOnUse"
       gradientTransform="translate(100,-1)" />
    <linearGradient
       id="linearGradient3108">
      <stop
         id="stop3110"
         style="stop-color:#000000;stop-opacity:1"
         offset="0" />
      <stop
         id="stop3112"
         style="stop-color:#000000;stop-opacity:0"
         offset="1" />
    </linearGradient>
    <clipPath
       id="clipPath3703">
      <rect
         width="84"
         height="84"
         rx="6"
         ry="6"
         x="106"
         y="6"
         id="rect3705"
         style="fill:#ff00ff;fill-opacity:1;fill-rule:nonzero;stroke:none" />
    </clipPath>
    <filter
       color-interpolation-filters="sRGB"
       id="filter3649">
      <feGaussianBlur
         id="feGaussianBlur3651"
         stdDeviation="1.38" />
    </filter>
    <linearGradient
       x1="48"
       y1="88"
       x2="48"
       y2="32"
       id="linearGradient3627"
       xlink:href="#linearGradient3700"
       gradientUnits="userSpaceOnUse" />
    <linearGradient
       id="linearGradient3119">
      <stop
         id="stop3121"
         style="stop-color:#dcdcdc;stop-opacity:1"
         offset="0" />
      <stop
         id="stop3123"
         style="stop-color:#f0f0f0;stop-opacity:1"
         offset="1" />
    </linearGradient>
    <clipPath
       clipPathUnits="userSpaceOnUse"
       id="clipPath3076">
      <rect
         x="6"
         y="6.0000038"
         width="84"
         height="84"
         style="fill:url(#linearGradient3080);fill-opacity:1"
         id="rect3078"
         rx="22.826086"
         ry="22.826086" />
    </clipPath>
    <linearGradient
       inkscape:collect="always"
       xlink:href="#linearGradient3795"
       id="linearGradient3080"
       gradientUnits="userSpaceOnUse"
       gradientTransform="matrix(1.05,0,0,1.05,-2.3999508,-1006.579)"
       x1="47.999954"
       y1="962.62189"
       x2="47.999954"
       y2="1046.1001" />
    <clipPath
       clipPathUnits="userSpaceOnUse"
       id="clipPath3009">
      <path
         id="path3011"
         d="m -2,956.36218 -96,0 0,33.5624 96,25.68742 0,-59.24982 z"
         style="opacity:0.15;fill:#ffffff;fill-opacity:1;stroke:none"
         inkscape:connector-curvature="0" />
    </clipPath>
  </defs>
  <sodipodi:namedview
     id="base"
     pagecolor="#ffffff"
     bordercolor="#666666"
     borderopacity="1.0"
     inkscape:pageopacity="0.0"
     inkscape:pageshadow="2"
     inkscape:zoom="3.959798"
     inkscape:cx="37.957448"
     inkscape:cy="59.964634"
     inkscape:document-units="px"
     inkscape:current-layer="layer1"
     showgrid="false"
     inkscape:window-width="1280"
     inkscape:window-height="750"
     inkscape:window-x="0"
     inkscape:window-y="22"
     inkscape:window-maximized="1"
     showguides="true"
     inkscape:guide-bbox="true">
    <sodipodi:guide
       orientation="0,1"
       position="-24.748737,0"
       id="guide11064" />
    <sodipodi:guide
       orientation="0,1"
       position="-23.233509,96"
       id="guide11066" />
    <sodipodi:guide
       orientation="1,0"
       position="0,54.800776"
       id="guide11068" />
    <sodipodi:guide
       orientation="1,0"
       position="96,51.012704"
       id="guide11070" />
    <sodipodi:guide
       orientation="0,1"
       position="-18.94036,48"
       id="guide11072" />
    <sodipodi:guide
       orientation="1,0"
       position="48,79.296975"
       id="guide11074" />
    <sodipodi:guide
       orientation="1,0"
       position="2,75.508903"
       id="guide11076" />
    <sodipodi:guide
       orientation="0,1"
       position="-77.27667,2"
       id="guide11078" />
    <sodipodi:guide
       orientation="1,0"
       position="94,77.781746"
       id="guide11080" />
    <sodipodi:guide
       orientation="0,1"
       position="-65.912454,94"
       id="guide11082" />
  </sodipodi:namedview>
  <metadata
     id="metadata11042">
    <rdf:RDF>
      <cc:Work
         rdf:about="">
        <dc:format>image/svg+xml</dc:format>
        <dc:type
           rdf:resource="http://purl.org/dc/dcmitype/StillImage" />
        <dc:title />
      </cc:Work>
    </rdf:RDF>
  </metadata>
  <g
     inkscape:label="Layer 1"
     inkscape:groupmode="layer"
     id="layer1"
     transform="translate(0,-956.36218)">
    <g
       transform="matrix(1.0952381,0,0,1.0952381,-4.5714286,951.79075)"
       id="layer1-9"
       clip-path="url(#clipPath3076)">
      <rect
         width="84"
         height="84"
         rx="6"
         ry="6"
         x="6"
         y="6"
         id="rect2419"
         style="fill:url(#linearGradient3689);fill-opacity:1;fill-rule:nonzero;stroke:none" />
      <path
         d="m 112,89 c -3.324,0 -6,-2.676 -6,-6 l 0,-6 42,-42 42,42 0,6 c 0,3.324 -2.676,6 -6,6 l -72,0 z"
         inkscape:connector-curvature="0"
         transform="translate(-100,-1)"
         clip-path="url(#clipPath3696)"
         id="path3653"
         style="opacity:0.3;fill:url(#linearGradient3701);fill-opacity:1;stroke:none;filter:url(#filter3665)" />
      <path
         d="M 12,90 C 8.676,90 6,87.324 6,84 l 0,-6 42,-42 42,42 0,6 c 0,3.324 -2.676,6 -6,6 l -72,0 z"
         inkscape:connector-curvature="0"
         id="path3619"
         style="fill:url(#linearGradient3635);fill-opacity:1;stroke:none" />
      <path
         d="M 48,36 6,78 6,79 48,37 90,79 90,78 48,36 z"
         inkscape:connector-curvature="0"
         id="path3718"
         style="opacity:0.4;fill:#ffffff;fill-opacity:1;stroke:none" />
      <path
         d="m 112,7 c -3.324,0 -6,2.676 -6,6 l 0,6 42,42 42,-42 0,-6 c 0,-3.324 -2.676,-6 -6,-6 l -72,0 z"
         inkscape:connector-curvature="0"
         transform="translate(-100,1)"
         clip-path="url(#clipPath3703)"
         id="path3637"
         style="opacity:0.4;fill:url(#linearGradient3707);fill-opacity:1;stroke:none;filter:url(#filter3649)" />
      <path
         d="M 12,6 C 8.676,6 6,8.676 6,12 l 0,6 42,42 42,-42 0,-6 C 90,8.676 87.324,6 84,6 L 12,6 z"
         inkscape:connector-curvature="0"
         id="path3613"
         style="fill:url(#linearGradient3627);fill-opacity:1;stroke:none" />
      <path
         d="M 6,17 6,18 48,60 90,18 90,17 48,59 6,17 z"
         inkscape:connector-curvature="0"
         id="path3709"
         style="opacity:0.6;fill:#ffffff;fill-opacity:1;stroke:none" />
    </g>
    <rect
       ry="25"
       rx="25"
       id="rect3003"
       style="opacity:0.15;fill:#ffffff;fill-opacity:1"
       height="92"
       width="92"
       y="958.36218"
       x="-96"
       clip-path="url(#clipPath3009)"
       transform="translate(98,3.8281269e-7)" />
  </g>
</svg>
